!!! OTL: Berkowitz73
!!! Chapter: 1
!!! Section: I
!!! Page: 19
!!! Mode: 
!!! Encoder: DJB
**kern
*staff1
*I"Piano
=1-
*clefG2
*k[]
*C:
*M4/4
4.c/
8e/
4g/
4cc\
=2
8.dd\L
16cc\Jk
8b/L
8a/J
2g/
=3
8a/L
8g/
8f/
8e/J
4.d/
8e/
=4
4f/
4g/
8.a/L
16g/Jk
8.a/L
16b/Jk
=5
4.cc\
8g/
4e/
4c/
=6
8.B/L
16c/Jk
8.d/L
16e/Jk
4f/
8g/L
8a/J
=7
!!linebreak:original
4.g/
8e/
4f/
4e/
=8
4d/
4c/
2r
==
*-
